public/assets/images/Inbox.svg

<svg width="23" height="23" viewBox="0 0 23 23" fill="none"  xmlns="http://www.w3.org/2000/svg">
<path d="M11.4286 0C5.11657 0 0 5.11657 0 11.4286C0 17.7406 5.11657 22.8571 11.4286 22.8571C17.7406 22.8571 22.8571 17.7406 22.8571 11.4286C22.8571 5.11657 17.7406 0 11.4286 0ZM11.4286 1.656C13.9183 1.656 16.1909 2.58743 17.9166 4.12C16.6486 5.79257 14.7223 6.90629 12.792 7.66C11.6993 5.66991 10.4746 3.75516 9.12629 1.92857C9.88039 1.7468 10.6534 1.6553 11.4291 1.656H11.4286ZM7.27086 2.58171C8.54514 4.488 9.77943 6.25543 10.9069 8.256C8.05543 8.99486 4.83314 9.43829 1.85657 9.44571C2.484 6.40114 4.52914 3.87314 7.27086 2.58229V2.58171ZM19.0006 5.25029C20.4127 6.97597 21.1895 9.1342 21.2011 11.364C18.9406 10.9183 16.6926 10.8017 14.4034 11.0326C14.1463 10.3909 13.8343 9.78114 13.5354 9.124C15.5086 8.328 17.6183 6.96571 19.0006 5.24971V5.25029ZM11.7006 9.768C11.9451 10.288 12.2286 10.84 12.4949 11.404C9.312 12.8074 5.92629 14.6829 4.16914 17.9709C2.48229 16.1042 1.58331 13.6571 1.66057 11.1423C5.06914 11.1263 8.41486 10.7 11.7006 9.768ZM16.8651 12.4326C18.2873 12.4329 19.7036 12.6153 21.0794 12.9754C20.8673 14.299 20.3851 15.5648 19.6629 16.694C18.9406 17.8232 17.9937 18.7918 16.8811 19.5394C16.3566 17.1537 15.8566 14.8709 14.9726 12.5691C15.5991 12.4778 16.2314 12.432 16.8646 12.432L16.8651 12.4326ZM21.1303 12.6097C21.1234 12.6657 21.1171 12.7206 21.1091 12.7754C21.1171 12.72 21.124 12.6651 21.1303 12.6097ZM13.1646 13.0154C14.0651 15.3429 14.772 17.92 15.2463 20.428C14.039 20.9403 12.7406 21.2034 11.4291 21.2017C9.25648 21.2048 7.1453 20.4806 5.432 19.1446C7.20171 16.2737 9.94286 14.1011 13.164 13.016L13.1646 13.0154Z" fill="black"/>
</svg>

<svg xmlns="http://www.w3.org/2000/svg" width="23" height="23" fill="none"><path fill="#000" d="M11.429 0C5.117 0 0 5.117 0 11.429s5.117 11.428 11.429 11.428 11.428-5.116 11.428-11.428C22.857 5.117 17.741 0 11.43 0Zm0 1.656c2.49 0 4.762.931 6.488 2.464-1.268 1.673-3.195 2.786-5.125 3.54a50.906 50.906 0 0 0-3.666-5.731 9.79 9.79 0 0 1 2.303-.273Zm-4.158.926c1.274 1.906 2.508 3.673 3.636 5.674-2.852.739-6.074 1.182-9.05 1.19A9.79 9.79 0 0 1 7.27 2.582ZM19 5.25a9.734 9.734 0 0 1 2.2 6.114 22.926 22.926 0 0 0-6.798-.331c-.257-.642-.569-1.252-.868-1.909 1.974-.796 4.083-2.158 5.466-3.874Zm-7.3 4.518c.244.52.528 1.072.794 1.636-3.183 1.403-6.569 3.279-8.326 6.567a9.739 9.739 0 0 1-2.508-6.829c3.408-.016 6.754-.442 10.04-1.374Zm5.164 2.665c1.422 0 2.839.182 4.214.542a9.771 9.771 0 0 1-4.198 6.564c-.524-2.385-1.024-4.668-1.908-6.97a13.12 13.12 0 0 1 1.892-.137Zm4.265.177-.02.165.02-.165Zm-7.965.405c.9 2.328 1.607 4.905 2.081 7.413a9.74 9.74 0 0 1-3.817.774 9.73 9.73 0 0 1-5.997-2.057 14.533 14.533 0 0 1 7.732-6.129Z"/></svg>
